site/corp/images/logo.svg

<?xml version="1.0" encoding="UTF-8"?>
<svg width="40px" height="62px" viewBox="0 0 40 62" version="1.1" xmlns="http://www.w3.org/2000/svg" xmlns:xlink="http://www.w3.org/1999/xlink">
    <!-- Generator: Sketch 49 (51002) - http://www.bohemiancoding.com/sketch -->
    <title>logo</title>
    <desc>Created with Sketch.</desc>
    <defs></defs>
    <g id="Symbols" stroke="none" stroke-width="1" fill="none" fill-rule="evenodd">
        <g id="header" transform="translate(-40.000000, -20.000000)">
            <g id="logo">
                <g transform="translate(40.000000, 20.000000)">
                    <g id="atom/logo">
                        <g id="logo">
                            <g id="Group-3" fill="#FDCE34">
                                <path d="M4.21062825,36.3492454 C5.08682106,37.0232819 5.91064729,37.5845687 6.68210695,38.0331057 C7.4535666,38.4816427 8.38341641,38.8909512 9.47165636,39.2610313 L6.99269114,54.7071123 L0.0685744889,50.4063757 L4.21062825,36.3492454 Z" id="Rectangle"></path>
                                <path d="M13.3171957,5.56469233 L14.7839039,5.78815602 L10.726257,31.7236235 C9.39905419,30.9208201 8.51578063,30.3465296 8.07643633,30.0007521 C7.63709202,29.6549747 7.1152375,29.1983316 6.51087276,28.630823 L13.3171957,5.56469233 Z" id="Rectangle-2"></path>
                                <path d="M18.9820742,0.122742105 L19.06073,33.9605715 C18.0718955,33.9077374 17.2019953,33.8204902 16.4510293,33.6988298 C15.7000634,33.5771695 14.8251142,33.3810477 13.8261816,33.1104645 L17.4559458,0.0482542096 L18.9820742,0.122742105 Z M16.0893855,25.5493482 L16.0893855,29.8696462 L17.7281192,29.8696462 L17.7281192,25.5493482 L16.0893855,25.5493482 Z" id="Combined-Shape"></path>
                                <path d="M13.0061134,40.3724395 C13.8527912,40.5884425 14.7555687,40.7625184 15.7144457,40.894667 C16.6733227,41.0268157 17.7563462,41.1341351 18.9635162,41.2166252 L18.9635162,62.0552059 L11.0338219,57.332728 L13.0061134,40.3724395 Z M14.2271881,46.1080074 L14.2271881,51.9180633 L16.9832402,51.9180633 L16.9832402,46.1080074 L14.2271881,46.1080074 Z" id="Combined-Shape"></path>
                            </g>
                            <g id="Group-3-Copy" transform="translate(30.000000, 31.500000) scale(-1, 1) translate(-30.000000, -31.500000) translate(20.000000, 0.000000)" fill="#319018">
                                <path d="M4.21062825,36.3492454 C5.08682106,37.0232819 5.91064729,37.5845687 6.68210695,38.0331057 C7.4535666,38.4816427 8.38341641,38.8909512 9.47165636,39.2610313 L6.99269114,54.7071123 L0.0685744889,50.4063757 L4.21062825,36.3492454 Z" id="Rectangle"></path>
                                <path d="M13.3171957,5.56469233 L14.7839039,5.78815602 L10.726257,31.7236235 C9.39905419,30.9208201 8.51578063,30.3465296 8.07643633,30.0007521 C7.63709202,29.6549747 7.1152375,29.1983316 6.51087276,28.630823 L13.3171957,5.56469233 Z" id="Rectangle-2"></path>
                                <path d="M18.9820742,0.122742105 L19.06073,33.9605715 C18.0718955,33.9077374 17.2019953,33.8204902 16.4510293,33.6988298 C15.7000634,33.5771695 14.8251142,33.3810477 13.8261816,33.1104645 L17.4559458,0.0482542096 L18.9820742,0.122742105 Z M16.0893855,25.5493482 L16.0893855,29.8696462 L17.7281192,29.8696462 L17.7281192,25.5493482 L16.0893855,25.5493482 Z" id="Combined-Shape"></path>
                                <path d="M13.0061134,40.3724395 C13.8527912,40.5884425 14.7555687,40.7625184 15.7144457,40.894667 C16.6733227,41.0268157 17.7563462,41.1341351 18.9635162,41.2166252 L18.9635162,62.0552059 L11.0338219,57.332728 L13.0061134,40.3724395 Z M14.2271881,46.1080074 L14.2271881,51.9180633 L16.9832402,51.9180633 L16.9832402,46.1080074 L14.2271881,46.1080074 Z" id="Combined-Shape"></path>
                            </g>
                            <path d="M8.39683041,32.2605414 C9.93506313,33.2334751 11.6127664,33.9767111 13.4299401,34.4902494 C15.2471139,35.0037877 17.1515969,35.3506133 19.1433892,35.5307263 L19.1433892,39.7765363 C17.0362248,39.7094043 14.8572364,39.3667296 12.6064239,38.7485124 C10.3556115,38.1302951 8.32813576,37.2406678 6.52399682,36.0796305 L8.39683041,32.2605414 Z" id="Rectangle-4" fill="#FDCE34"></path>
                            <path d="M27.5741946,32.2532588 C29.1124273,33.2261925 30.7901306,33.9694286 32.6073043,34.4829669 C34.4244781,34.9965052 36.4282783,35.2936722 38.618705,35.3744679 L38.618705,39.620278 C36.3129062,39.6524631 34.0346006,39.3594471 31.7837881,38.7412298 C29.5329757,38.1230125 27.5055,37.2333853 25.701361,36.072348 C22.2409832,33.6830006 20.5789942,30.9949966 20.715394,28.008336 C20.8517938,25.0216754 22.7714517,22.4287569 26.4743677,20.2295804 L27.1892654,20.2295804 C24.7478702,22.0278432 23.583501,24.0420201 23.6961578,26.2721111 C23.8088147,28.502202 25.1014936,30.495918 27.5741946,32.2532588 Z" id="Rectangle-4-Copy" fill="#FDCE34" transform="translate(29.663170, 29.926124) scale(-1, 1) translate(-29.663170, -29.926124) "></path>
                            <path d="M6.03351955,30.3012308 L7.42929024,31.5578632 L5.29299547,35.0802359 C4.88794365,34.8123481 4.52331561,34.5088249 4.19911132,34.1696663 C3.87490703,33.8305077 3.57249171,33.4881686 3.29186537,33.1426489 L6.03351955,30.3012308 Z" id="Rectangle-5" fill="#FDCE34"></path>
                            <path d="M4.719698,27.7593921 L5.05000546,28.5592209 L5.54344466,29.3870201 L2.47398896,31.9065913 C2.29943924,31.6857059 2.13054389,31.3356224 1.96730292,30.8563409 C1.80406194,30.3770595 1.71530886,29.7736315 1.70104368,29.0460571 L4.719698,27.7593921 Z" id="Rectangle-5-Copy" fill="#FDCE34"></path>
                            <path d="M2.38361266,25.1769088 L4.61824953,25.1769088 C4.59990145,25.5071743 4.58551976,25.7660448 4.57510445,25.9535202 C4.56468915,26.1409956 4.55424155,26.3290525 4.54376164,26.5176909 L1.61661234,27.5602665 C1.74820687,26.9653532 1.86901754,26.5022313 1.97904434,26.1709007 C2.08907115,25.83957 2.22392726,25.5082394 2.38361266,25.1769088 Z" id="Rectangle-6" fill="#FDCE34"></path>
                        </g>
                    </g>
                </g>
            </g>
        </g>
    </g>
</svg>

<svg width="40" height="62" viewBox="0 0 40 62" xmlns="http://www.w3.org/2000/svg"><title>logo</title><g fill="none" fill-rule="evenodd"><path d="M4.21 36.35a23.36 23.36 0 0 0 2.472 1.683c.772.449 1.701.858 2.79 1.228l-2.48 15.446-6.923-4.3L4.21 36.348zm9.107-30.785l1.467.223-4.058 25.936C9.4 30.92 8.516 30.347 8.076 30c-.439-.346-.96-.803-1.565-1.37l6.806-23.066zM18.982.123l.079 33.838a24.774 24.774 0 0 1-2.61-.262 26.344 26.344 0 0 1-2.625-.589L17.456.048l1.526.075zM16.09 25.549v4.32h1.64v-4.32h-1.64zm-3.084 14.823c.847.216 1.75.39 2.708.523.96.132 2.042.24 3.25.322v20.838l-7.93-4.722 1.972-16.96zm1.221 5.736v5.81h2.756v-5.81h-2.756z" fill="#FDCE34"/><path d="M35.79 36.35a23.36 23.36 0 0 1-2.472 1.683c-.772.449-1.701.858-2.79 1.228l2.48 15.446 6.923-4.3-4.142-14.058zM26.683 5.565l-1.467.223 4.058 25.936c1.327-.803 2.21-1.377 2.65-1.723.439-.346.96-.803 1.565-1.37L26.683 5.565zM21.018.123l-.079 33.838c.99-.053 1.859-.14 2.61-.262a26.344 26.344 0 0 0 2.625-.589L22.544.048l-1.526.075zm2.893 25.426v4.32h-1.64v-4.32h1.64zm3.083 14.823c-.847.216-1.75.39-2.708.523-.96.132-2.042.24-3.25.322v20.838l7.93-4.722-1.972-16.96zm-1.221 5.736v5.81h-2.756v-5.81h2.756z" fill="#319018"/><path d="M8.397 32.26a19.05 19.05 0 0 0 5.033 2.23c1.817.514 3.722.86 5.713 1.04v4.247c-2.107-.068-4.286-.41-6.537-1.028-2.25-.619-4.278-1.508-6.082-2.67l1.873-3.818zm23.355-.007a19.05 19.05 0 0 1-5.033 2.23c-1.817.514-3.82.81-6.011.891v4.246a24.38 24.38 0 0 0 6.835-.879c2.25-.618 4.278-1.508 6.082-2.669 3.46-2.389 5.122-5.077 4.986-8.064-.136-2.986-2.056-5.58-5.759-7.778h-.715c2.441 1.798 3.606 3.812 3.493 6.042-.112 2.23-1.405 4.224-3.878 5.981zM6.034 30.301l1.395 1.257-2.136 3.522a6.36 6.36 0 0 1-1.094-.91 16.98 16.98 0 0 1-.907-1.027L6.034 30.3zM4.72 27.76l.33.8.493.827-3.069 2.52c-.175-.221-.343-.571-.507-1.05-.163-.48-.252-1.083-.266-1.81l3.019-1.288zm-2.336-2.583h2.234l-.043.777-.031.564-2.927 1.042a14.78 14.78 0 0 1 .362-1.39c.11-.33.245-.662.405-.993z" fill="#FDCE34"/></g></svg>
